cash-minus.svg

<svg fill="currentColor" viewBox="0 0 24 24"><path d="M15 15v2h8v-2m-8.03-3.39C14.85 10.28 13.59 8.97 12 9c-1.7.03-3 1.3-3 3s1.3 2.94 3 3c.38 0 .77-.08 1.14-.23.27-1.1.72-2.14 1.83-3.16M13 16H7a2 2 0 0 0-2-2v-4c1.11 0 2-.89 2-2h10a2 2 0 0 0 2 2v.06c.67 0 1.34.12 2 .34V6H3v12h10.32a6.4 6.4 0 0 1-.32-2"/></svg>

<svg  viewBox="0 0 24 24" fill="currentColor"><path  d="M15 15V17H23V15M14.97 11.61C14.85 10.28 13.59 8.97 12 9C10.3 9.03 9 10.3 9 12C9 13.7 10.3 14.94 12 15C12.38 15 12.77 14.92 13.14 14.77C13.41 13.67 13.86 12.63 14.97 11.61M13 16H7C7 14.9 6.11 14 5 14V10C6.11 10 7 9.11 7 8H17C17 9.11 17.9 10 19 10V10.06C19.67 10.06 20.34 10.18 21 10.4V6H3V18H13.32C13.1 17.33 13 16.66 13 16Z"/></svg>
